image/advantages-text2.svg

<svg fill="none" height="44" viewBox="0 0 167 44" width="167" xmlns="http://www.w3.org/2000/svg"><g fill="#000"><path d="m3.05118 14.2652v4.8154c0 .2792-.32868.7346-.61974.8098-.2673.0693-1.59588.0634-1.8513-.0178-.36828-.1188-.5148009-.5128-.57024091-.8593l-.00989909-13.97288c.05346-.63756.3465-1.06722 1.02564-1.08702 4.19166.14652 8.50806-.1881 12.68386 0 1.7761.0792 5.0946.65538 5.946 2.4453.3465.72864.3009 3.10662.2395 3.9897-.2257 3.2234-3.8847 3.7521-6.4389 3.8788-3.1997.1545-6.79736.1743-10.00694.0673-.1386-.0039-.26334-.0633-.40194-.0653h.00198zm0-2.4829h11.22262c.8851-.0713 2.3938-.3069 2.6116-1.3622.103-.49898.0812-2.2196.0297-2.77004-.095-1.02168-1.9463-1.08504-2.7066-1.2078h-11.15732v5.34204z"/><path d="m116.551 10.7864h14.202c.105 0 .499.1881.594.2752.432.402.329 1.6573-.156 2.0236-.058.0436-.331.1861-.374.1861h-14.203v2.8888c0 .0792.21.3861.279.4673.58.6811 2.127.8296 2.98.8712 3.594.1743 7.328-.1406 10.938.002 1.095.1307 1.089 2.3562-.054 2.4196-3.815-.1782-7.833.2277-11.626-.004-2.059-.1247-5.263-.986-5.501-3.4472-.271-2.8037.202-6.035 0-8.88227.434-2.75814 3.883-3.53033 6.243-3.63725.99-.04356 2.455-.08316 3.424 0 .968.08316 1.073.84744.954 1.70478-.059.44352-.404.71676-.84.77616-1.615.21978-5.3-.42966-6.52.81378-.115.11682-.342.5049-.342.65142v2.88878h.002z"/><path d="m30.1515 10.7864h13.9847v-6.18159c0-.21384.404-.50688.6079-.57222.5485-.17622 1.9978-.23562 2.2453.4554.1485 4.90248.0436 9.84651.0535 14.76291-.0475.2811-.2594.5643-.5425.6375-.2475.0634-1.4969.0674-1.7602.0159-.2277-.0456-.6059-.4237-.6059-.6376v-5.9954h-13.9848v5.9954c0 .2139-.3782.592-.6059.6376-.2653.0534-1.5681.0475-1.8097-.0277-.2653-.0832-.5088-.4198-.5544-.6891l-.0178-14.21243c.002-.37224.1683-.75834.5188-.90882.4613-.198 1.8374-.19998 2.2215.16434.0535.0495.2455.33858.2455.3762v6.18161z"/><path d="m144.958 11.7823c-.058 0-.111-.0257-.155-.0613-2.215-1.89292-4.724-3.76006-6.837-5.71828-.475-.43956-.974-.93258-.566-1.61766.198-.33066.636-.4059.996-.43362.471-.03762 1.208-.05346 1.608.198l7.094 5.89046.309-.18806 6.788-5.7024c.461-.27324 1.57-.26928 2.073-.10296.786.2574.772 1.10286.281 1.64934l-7.306 6.11618 7.46 6.3341c.454.4059.636 1.182.091 1.5859-.459.3406-1.974.3347-2.477-.0099l-7.165-6.0746c-2.525 1.9919-4.938 4.1342-7.449 6.1479-.493.2554-1.438.2138-1.976.1069-.887-.1742-.855-1.1721-.327-1.7265 2.35-2.083 4.948-3.9897 7.273-6.0866.047-.0435.303-.2772.281-.3069z"/><path d="m90.0564 3.97123c.7029-.10098 1.982-.14454 2.1245.76428v10.99299c.1446 1.6553 2.2711 1.6394 3.5145 1.7067 3.6215.1961 7.2906-.0316 10.9256.0753 1.042.1742 1.014 2.3582-.107 2.4096-3.904-.1722-7.9911.2198-11.8739-.0039-2.2671-.1307-5.2569-1.1762-5.443-3.8155-.2554-3.659.198-7.61705.002-11.30777.0554-.49104.3781-.75438.8553-.8217z"/><path d="m65.6291 3.97126c.6614-.09702 1.9721-.15246 2.1127.7128l.0119 10.98304c.1465 1.7147 2.2215 1.6989 3.5125 1.7701 3.6214.1961 7.2903-.0316 10.9256.0753.7683.1287.8098.9999.7247 1.6256-.0554.4098-.4019.792-.8316.784-3.9045-.1702-7.9913.2198-11.8741-.0039-2.3146-.1327-5.245-1.2039-5.443-3.8808-.2653-3.6096.204-7.54184.002-11.18306.0614-.5148.3445-.80982.8554-.88308z"/><path d="m55.3074 8.06589c.2099-.04752 1.2494-.0396 1.4315.03366.2733.11088.596.6237.6316.9207l.006 10.12175c-.0357.3544-.2831.7148-.6574.7722-.2673.0416-1.3345.0396-1.582-.0257-.2851-.0733-.5128-.4059-.5524-.6911l-.004-10.05637c-.0039-.36432.3742-.99396.7267-1.07514z"/><path d="m55.6222 3.97122c1.1524-.13662 2.5522.58608 2.0949 1.90872-.5247 1.52064-3.8393 1.3959-3.5759-.77814.0752-.62568.9088-1.06326 1.479-1.13058z"/><path d="m164.815.545797c2.234 1.253343 2.026 4.480743-.241 5.599443-3.4 1.67706-7.269-1.9305-4.691-4.9599 1.182-1.387981 3.4-1.496883 4.93-.639543zm-.812.091082c-5.056-1.781999-6.167 6.033061-.776 5.460841 3.093-.32868 3.681-4.4352.776-5.460841z"/><path d="m162.691 1.33774c.277.01782.582.03168.837.23562.456.3663.452 1.56618-.229 1.71072.18.17622 1.009 1.94634 1.009 1.94634l-.615-.00792-.921-1.72062h-.768v1.7325l-.577-.00396v-3.8907c.016.01188.777-.03168 1.268 0zm.249.48114c-.287-.03762-.618-.01188-.938 0v1.20978c.219-.01188 1.085.06732 1.221-.23364.111-.2475.139-.9207-.283-.97614z"/><path d="m53.3135 29.236c1.1643.0792 2.6077.5326 3.3997 1.4493.9385 1.1009 1.3127 2.6077 1.1405 4.0353-.2396 2.7403-2.481 4.9579-5.0886 5.7063-1.2632.3921-2.6077.3386-3.9165.3228-.691-.0139-1.3919-.0278-2.075-.0317-.1208 0-.7465-.0159-.7465-.0159v-.3009s.3961-.006.8119-.5109c.1128-.1366.3682-.7543.4831-1.0909.685-2.0573 1.3444-4.2768 1.877-6.4568.1505-.6435.4376-1.3207.3465-1.982-.0614-.3267-.1267-.6376-.6851-.7762l.004-.4158h.6475c1.1682.0218 2.6056-.0415 3.7798.0634h.0217zm.3069.7405c-1.0295-.2119-2.2492-.3287-2.4512.9425-.495 2.1126-1.2434 4.2015-1.8097 6.2983-.2693 1.1029-1.1306 3.0057.7643 2.9522 2.8532-.1643 4.6193-1.1405 5.54-3.9699.7346-2.1483.596-5.5182-2.0196-6.2192l-.0257-.0059z"/><path d="m80.6494 40.7199.0654-.3088c.3762-.0258.8157-.0317 1.1444-.2396.4138-.2614.6831-1.2296.8276-1.6929.6831-2.1958 1.3583-4.5501 1.9365-6.7756.101-.3881.3406-1.1603.2435-1.5325-.1247-.4732-.8732-.4811-1.2612-.5287l.0772-.2811.093-.0317c1.6157.0752 3.3126-.0931 4.9184 0 3.5422.2079 4.0233 3.8452 1.1048 5.4311-1.4632.796-3.0809.7485-4.6669.3881-.3009 1.289-.7504 2.5404-1.081 3.8194-.1723.6732-.4119 1.2039.4811 1.3682.2178.0396.4415.0337.6613.0713l-.1089.3109h-4.4332zm4.6689-6.1003c1.875.6098 4.0471.097 4.6253-1.982.6177-2.2176-.9227-2.8591-2.8334-2.6156-.0772.0099-.5247.0693-.5426.095z"/><path d="m104.576 33.3148-1.634 5.445c-.075.2772-.283.9385-.225 1.1919.021.097.081.1545.18.1347.332-.0674.655-.895.885-1.1385.045.0712.235.1445.227.2277-.007.093-.506.7781-.601.893-.258.3108-.747.7682-1.159.8316-1.344.2118-.713-1.5167-.52-2.2018.148-.5287.38-1.093.498-1.6157.008-.0317.042-.101-.015-.095-.117.2316-.266.4494-.41.6633-.761 1.1167-2.2099 3.1739-3.6791 3.259-1.1009.0634-1.1682-.7979-.9979-1.6513.3109-1.5622 1.1623-3.1363 1.4949-4.6668.0455-.2099.1208-.5049-.1881-.5307-.5485-.0455-1.0256.7425-1.3999 1.0534l-.2514-.1802c.4237-.7088 1.4236-1.6929 2.2829-1.7959 1.1586-.1405 1.0776.8416.8692 1.6474-.3484 1.3484-.9642 2.6829-1.3602 4.0214-.1307.4435-.4673 1.2811.3445 1.1524.9464-.1485 2.3051-2.0197 2.8231-2.8077.491-.7465.808-1.483 1.095-2.3265.171-.499.289-1.0237.481-1.5088h1.26z"/><path d="m96.7033 28.7726-2.877 9.801c-.0673.2456-.3267 1.0435-.2752 1.2375.0475.1842.1762.2277.3544.1782.3049-.0831.8554-.9306.996-1.2295l.2673.2811c-.4752.7188-1.4989 2.1048-2.5027 1.8434-.301-.0772-.4891-.4138-.501-.7069.697-2.9442 1.6771-5.8192 2.5008-8.7298.1069-.3742.3682-1.0969.39-1.4474.0376-.6494-.8494-.4969-1.2454-.4494v-.2911z"/><path d="m110.773 33.1346.337-.006-.503 2.578-.325-.0258c-.022-.5405-.115-1.186-.465-1.6196-.949-1.1781-3.119-.2475-1.758 1.4454.898 1.1167 2.53 2.4295 1.726 4.063-.58 1.18-1.915 1.5048-3.122 1.2533-.416-.0871-1.012-.4237-1.386-.1921-.21.1307-.186.3644-.551.2753l.501-2.7344.339-.004c0 .7089.15 1.6117.78 2.0355.76.5108 2.136.3861 2.378-.6336.323-1.3544-1.877-2.7008-2.204-4.0214-.4-1.6157 1.111-2.7324 2.616-2.3661.568.1386 1.221.7029 1.631-.0475z"/><path d="m68.9536 43.6682.0851-.2733c.198-.0534.3901-.0435.594-.097.4-.1029.501-.2792.6574-.6375.6989-2.5602 1.6553-5.1738 2.2572-7.7537.0515-.2238.1643-.5821.0435-.7881-.1881-.3227-.7464-.1485-1.0494-.1445l.0119-.2891 2.6631-.4296-.4752 1.6968c.7702-.9722 2.3166-2.2473 3.6076-1.479 1.3998.8335.8395 3.0036.198 4.1619-1.0554 1.9048-3.0532 3.5799-5.3143 2.4651-.1545.7267-.4218 1.4256-.602 2.1444-.0495.2019-.1425.4831-.1148.685.0673.4832.8217.4297 1.1761.4475l-.0574.2871h-3.6808zm6.8686-9.7416c-.7801.0594-1.4711.8157-1.8869 1.4196-.8356 1.2118-1.0475 2.7027-1.489 4.0788.2653.404.8534.6079 1.3266.5881 1.8533-.0713 3.3502-3.5779 3.0848-5.1539-.091-.5445-.4395-.9782-1.0335-.9346z"/><path d="m70.7771 33.9345c.6693.6871.0792 1.7028-.5068 2.2196-1.0989.9702-2.7245 1.2771-4.1402 1.4256-.0594.3881-.0951.7366.0138 1.1207.1604.5722.693 1.0355 1.2732 1.1424 1.1147.206 2.079-.5643 2.9007-1.1979l.1821.2139c-.3979.4534-.9226.8831-1.4414 1.2058-1.1167.693-2.8769 1.093-3.8056-.101-1.4652-1.883.3485-4.8629 2.1206-5.8707.8534-.4851 2.6255-.9563 3.4036-.1584zm-4.5916 3.2967c1.2375-.1485 2.7047-.5861 3.4294-1.6751.8039-1.2078.0416-2.0849-1.2692-1.4414-.2178.1069-.4495.2732-.6376.4277-.8177.6771-1.2731 1.6731-1.5246 2.6888z"/><path d="m64.2016 33.9345c.6692.6871.0792 1.7028-.5069 2.2196-1.0989.9702-2.7245 1.2771-4.1402 1.4256-.0594.3881-.095.7366.0139 1.1207.1604.5722.693 1.0355 1.2731 1.1424 1.1147.206 2.079-.5643 2.9007-1.1979l.1822.2139c-.398.4534-.9227.8831-1.4415 1.2058-1.1167.693-2.8769 1.093-3.8055-.101-1.4652-1.883.3485-4.8629 2.1206-5.8707.8533-.4851 2.6254-.9563 3.4036-.1584zm-4.5916 3.2967c1.2375-.1485 2.7046-.5861 3.4293-1.6751.8039-1.2078.0416-2.0849-1.2692-1.4414-.2178.1069-.4494.2732-.6375.4277-.8178.6771-1.2732 1.6731-1.5246 2.6888z"/></g></svg>

<svg width="167" height="44" viewBox="0 0 167 44" fill="none" xmlns="http://www.w3.org/2000/svg">
<path d="M3.05118 14.2652V19.0806C3.05118 19.3598 2.7225 19.8152 2.43144 19.8904C2.16414 19.9597 0.83556 19.9538 0.58014 19.8726C0.21186 19.7538 0.0653391 19.3598 0.00989909 19.0133L0 5.04042C0.05346 4.40286 0.3465 3.9732 1.02564 3.9534C5.2173 4.09992 9.5337 3.7653 13.7095 3.9534C15.4856 4.0326 18.8041 4.60878 19.6555 6.3987C20.002 7.12734 19.9564 9.50532 19.895 10.3884C19.6693 13.6118 16.0103 14.1405 13.4561 14.2672C10.2564 14.4217 6.65874 14.4415 3.44916 14.3345C3.31056 14.3306 3.18582 14.2712 3.04722 14.2692H3.0492L3.05118 14.2652ZM3.05118 11.7823H14.2738C15.1589 11.711 16.6676 11.4754 16.8854 10.4201C16.9884 9.92112 16.9666 8.2005 16.9151 7.65006C16.8201 6.62838 14.9688 6.56502 14.2085 6.44226H3.05118V11.7843V11.7823Z" fill="black"/>
<path d="M116.551 10.7864H130.753C130.858 10.7864 131.252 10.9745 131.347 11.0616C131.779 11.4636 131.676 12.7189 131.191 13.0852C131.133 13.1288 130.86 13.2713 130.817 13.2713H116.614V16.1601C116.614 16.2393 116.824 16.5462 116.893 16.6274C117.473 17.3085 119.02 17.457 119.873 17.4986C123.467 17.6729 127.201 17.358 130.811 17.5006C131.906 17.6313 131.9 19.8568 130.757 19.9202C126.942 19.742 122.924 20.1479 119.131 19.9162C117.072 19.7915 113.868 18.9302 113.63 16.469C113.359 13.6653 113.832 10.434 113.63 7.58673C114.064 4.82859 117.513 4.0564 119.873 3.94948C120.863 3.90592 122.328 3.86632 123.297 3.94948C124.265 4.03264 124.37 4.79692 124.251 5.65426C124.192 6.09778 123.847 6.37102 123.411 6.43042C121.796 6.6502 118.111 6.00076 116.891 7.2442C116.776 7.36102 116.549 7.7491 116.549 7.89562V10.7844H116.551V10.7864Z" fill="black"/>
<path d="M30.1515 10.7864H44.1362V4.60481C44.1362 4.39097 44.5402 4.09793 44.7441 4.03259C45.2926 3.85637 46.7419 3.79697 46.9894 4.48799C47.1379 9.39047 47.033 14.3345 47.0429 19.2509C46.9954 19.532 46.7835 19.8152 46.5004 19.8884C46.2529 19.9518 45.0035 19.9558 44.7402 19.9043C44.5125 19.8587 44.1343 19.4806 44.1343 19.2667V13.2713H30.1495V19.2667C30.1495 19.4806 29.7713 19.8587 29.5436 19.9043C29.2783 19.9577 27.9755 19.9518 27.7339 19.8766C27.4686 19.7934 27.2251 19.4568 27.1795 19.1875L27.1617 4.97507C27.1637 4.60283 27.33 4.21673 27.6805 4.06625C28.1418 3.86825 29.5179 3.86627 29.902 4.23059C29.9555 4.28009 30.1475 4.56917 30.1475 4.60679V10.7884L30.1515 10.7864Z" fill="black"/>
<path d="M144.958 11.7823C144.9 11.7823 144.847 11.7566 144.803 11.721C142.588 9.82808 140.079 7.96094 137.966 6.00272C137.491 5.56316 136.992 5.07014 137.4 4.38506C137.598 4.0544 138.036 3.97916 138.396 3.95144C138.867 3.91382 139.604 3.89798 140.004 4.14944L147.098 10.0399L147.407 9.85184L154.195 4.14944C154.656 3.8762 155.765 3.88016 156.268 4.04648C157.054 4.30388 157.04 5.14934 156.549 5.69582L149.243 11.812L156.703 18.1461C157.157 18.552 157.339 19.3281 156.794 19.732C156.335 20.0726 154.82 20.0667 154.317 19.7221L147.152 13.6475C144.627 15.6394 142.214 17.7817 139.703 19.7954C139.21 20.0508 138.265 20.0092 137.727 19.9023C136.84 19.7281 136.872 18.7302 137.4 18.1758C139.75 16.0928 142.348 14.1861 144.673 12.0892C144.72 12.0457 144.976 11.812 144.954 11.7823H144.958Z" fill="black"/>
<path d="M90.0564 3.97123C90.7593 3.87025 92.0384 3.82669 92.1809 4.73551V15.7285C92.3255 17.3838 94.452 17.3679 95.6954 17.4352C99.3169 17.6313 102.986 17.4036 106.621 17.5105C107.663 17.6847 107.635 19.8687 106.514 19.9201C102.61 19.7479 98.5229 20.1399 94.6401 19.9162C92.373 19.7855 89.3832 18.74 89.1971 16.1007C88.9417 12.4417 89.3951 8.48365 89.1991 4.79293C89.2545 4.30189 89.5772 4.03855 90.0544 3.97123H90.0564Z" fill="black"/>
<path d="M65.6291 3.97126C66.2905 3.87424 67.6012 3.8188 67.7418 4.68406L67.7537 15.6671C67.9002 17.3818 69.9752 17.366 71.2662 17.4372C74.8876 17.6333 78.5565 17.4056 82.1918 17.5125C82.9601 17.6412 83.0016 18.5124 82.9165 19.1381C82.8611 19.5479 82.5146 19.9301 82.0849 19.9221C78.1804 19.7519 74.0936 20.1419 70.2108 19.9182C67.8962 19.7855 64.9658 18.7143 64.7678 16.0374C64.5025 12.4278 64.9718 8.49556 64.7698 4.85434C64.8312 4.33954 65.1143 4.04452 65.6252 3.97126H65.6291Z" fill="black"/>
<path d="M55.3074 8.06589C55.5173 8.01837 56.5568 8.02629 56.7389 8.09955C57.0122 8.21043 57.3349 8.72325 57.3705 9.02025L57.3765 19.142C57.3408 19.4964 57.0934 19.8568 56.7191 19.9142C56.4518 19.9558 55.3846 19.9538 55.1371 19.8885C54.852 19.8152 54.6243 19.4826 54.5847 19.1974L54.5807 9.14103C54.5768 8.77671 54.9549 8.14707 55.3074 8.06589Z" fill="black"/>
<path d="M55.6222 3.97122C56.7746 3.8346 58.1744 4.5573 57.7171 5.87994C57.1924 7.40058 53.8778 7.27584 54.1412 5.1018C54.2164 4.47612 55.05 4.03854 55.6202 3.97122H55.6222Z" fill="black"/>
<path d="M164.815 0.545797C167.049 1.79914 166.841 5.02654 164.574 6.14524C161.174 7.8223 157.305 4.21474 159.883 1.18534C161.065 -0.202641 163.283 -0.311543 164.813 0.545797H164.815ZM164.003 0.636879C158.947 -1.14512 157.836 6.66994 163.227 6.09772C166.32 5.76904 166.908 1.66252 164.003 0.636879Z" fill="black"/>
<path d="M162.691 1.33774C162.968 1.35556 163.273 1.36942 163.528 1.57336C163.984 1.93966 163.98 3.13954 163.299 3.28408C163.479 3.4603 164.308 5.23042 164.308 5.23042L163.693 5.2225L162.772 3.50188H162.004V5.23438L161.427 5.23042V1.33972C161.443 1.3516 162.204 1.30804 162.695 1.33972L162.691 1.33774ZM162.94 1.81888C162.653 1.78126 162.322 1.807 162.002 1.81888V3.02866C162.221 3.01678 163.087 3.09598 163.223 2.79502C163.334 2.54752 163.362 1.87432 162.94 1.81888Z" fill="black"/>
<path d="M53.3135 29.236C54.4778 29.3152 55.9212 29.7686 56.7132 30.6853C57.6517 31.7862 58.0259 33.293 57.8537 34.7206C57.6141 37.4609 55.3727 39.6785 52.7651 40.4269C51.5019 40.819 50.1574 40.7655 48.8486 40.7497C48.1576 40.7358 47.4567 40.7219 46.7736 40.718C46.6528 40.718 46.0271 40.7021 46.0271 40.7021V40.4012C46.0271 40.4012 46.4232 40.3952 46.839 39.8903C46.9518 39.7537 47.2072 39.136 47.3221 38.7994C48.0071 36.7421 48.6665 34.5226 49.1991 32.3426C49.3496 31.6991 49.6367 31.0219 49.5456 30.3606C49.4842 30.0339 49.4189 29.723 48.8605 29.5844L48.8645 29.1686H49.512C50.6802 29.1904 52.1176 29.1271 53.2918 29.232H53.3135V29.236ZM53.6204 29.9765C52.5909 29.7646 51.3712 29.6478 51.1692 30.919C50.6742 33.0316 49.9258 35.1205 49.3595 37.2173C49.0902 38.3202 48.2289 40.223 50.1238 40.1695C52.977 40.0052 54.7431 39.029 55.6638 36.1996C56.3984 34.0513 56.2598 30.6814 53.6442 29.9804L53.6185 29.9745L53.6204 29.9765Z" fill="black"/>
<path d="M80.6494 40.7199L80.7148 40.4111C81.091 40.3853 81.5305 40.3794 81.8592 40.1715C82.273 39.9101 82.5423 38.9419 82.6868 38.4786C83.3699 36.2828 84.0451 33.9285 84.6233 31.703C84.7243 31.3149 84.9639 30.5427 84.8668 30.1705C84.7421 29.6973 83.9936 29.6894 83.6056 29.6418L83.6828 29.3607L83.7758 29.329C85.3915 29.4042 87.0884 29.2359 88.6942 29.329C92.2364 29.5369 92.7175 33.1742 89.799 34.7601C88.3358 35.5561 86.7181 35.5086 85.1321 35.1482C84.8312 36.4372 84.3817 37.6886 84.0511 38.9676C83.8788 39.6408 83.6392 40.1715 84.5322 40.3358C84.75 40.3754 84.9737 40.3695 85.1935 40.4071L85.0846 40.718H80.6514L80.6494 40.7199ZM85.3183 34.6196C87.1933 35.2294 89.3654 34.7166 89.9436 32.6376C90.5613 30.42 89.0209 29.7785 87.1102 30.022C87.033 30.0319 86.5855 30.0913 86.5676 30.117L85.3183 34.6196Z" fill="black"/>
<path d="M104.576 33.3148L102.942 38.7598C102.867 39.037 102.659 39.6983 102.717 39.9517C102.738 40.0487 102.798 40.1062 102.897 40.0864C103.229 40.019 103.552 39.1914 103.782 38.9479C103.827 39.0191 104.017 39.0924 104.009 39.1756C104.002 39.2686 103.503 39.9537 103.408 40.0686C103.15 40.3794 102.661 40.8368 102.249 40.9002C100.905 41.112 101.536 39.3835 101.729 38.6984C101.877 38.1697 102.109 37.6054 102.227 37.0827C102.235 37.051 102.269 36.9817 102.212 36.9877C102.095 37.2193 101.946 37.4371 101.802 37.651C101.041 38.7677 99.5921 40.8249 98.1229 40.91C97.022 40.9734 96.9547 40.1121 97.125 39.2587C97.4359 37.6965 98.2873 36.1224 98.6199 34.5919C98.6654 34.382 98.7407 34.087 98.4318 34.0612C97.8833 34.0157 97.4062 34.8037 97.0319 35.1146L96.7805 34.9344C97.2042 34.2256 98.2041 33.2415 99.0634 33.1385C100.222 32.998 100.141 33.9801 99.9326 34.7859C99.5842 36.1343 98.9684 37.4688 98.5724 38.8073C98.4417 39.2508 98.1051 40.0884 98.9169 39.9597C99.8633 39.8112 101.222 37.94 101.74 37.152C102.231 36.4055 102.548 35.669 102.835 34.8255C103.006 34.3265 103.124 33.8018 103.316 33.3167H104.576V33.3148Z" fill="black"/>
<path d="M96.7033 28.7726L93.8263 38.5736C93.759 38.8192 93.4996 39.6171 93.5511 39.8111C93.5986 39.9953 93.7273 40.0388 93.9055 39.9893C94.2104 39.9062 94.7609 39.0587 94.9015 38.7598L95.1688 39.0409C94.6936 39.7597 93.6699 41.1457 92.6661 40.8843C92.3651 40.8071 92.177 40.4705 92.1651 40.1774C92.8621 37.2332 93.8422 34.3582 94.6659 31.4476C94.7728 31.0734 95.0341 30.3507 95.0559 30.0002C95.0935 29.3508 94.2065 29.5033 93.8105 29.5508V29.2597L96.7033 28.7726Z" fill="black"/>
<path d="M110.773 33.1346L111.11 33.1286L110.607 35.7066L110.282 35.6808C110.26 35.1403 110.167 34.4948 109.817 34.0612C108.868 32.8831 106.698 33.8137 108.059 35.5066C108.957 36.6233 110.589 37.9361 109.785 39.5696C109.205 40.7496 107.87 41.0744 106.663 40.8229C106.247 40.7358 105.651 40.3992 105.277 40.6308C105.067 40.7615 105.091 40.9952 104.726 40.9061L105.227 38.1717L105.566 38.1677C105.566 38.8766 105.716 39.7794 106.346 40.2032C107.106 40.714 108.482 40.5893 108.724 39.5696C109.047 38.2152 106.847 36.8688 106.52 35.5482C106.12 33.9325 107.631 32.8158 109.136 33.1821C109.704 33.3207 110.357 33.885 110.767 33.1346H110.773Z" fill="black"/>
<path d="M68.9536 43.6682L69.0387 43.3949C69.2367 43.3415 69.4288 43.3514 69.6327 43.2979C70.0327 43.195 70.1337 43.0187 70.2901 42.6604C70.989 40.1002 71.9454 37.4866 72.5473 34.9067C72.5988 34.6829 72.7116 34.3246 72.5908 34.1186C72.4027 33.7959 71.8444 33.9701 71.5414 33.9741L71.5533 33.685L74.2164 33.2554L73.7412 34.9522C74.5114 33.98 76.0578 32.7049 77.3488 33.4732C78.7486 34.3067 78.1883 36.4768 77.5468 37.6351C76.4914 39.5399 74.4936 41.215 72.2325 40.1002C72.078 40.8269 71.8107 41.5258 71.6305 42.2446C71.581 42.4465 71.488 42.7277 71.5157 42.9296C71.583 43.4128 72.3374 43.3593 72.6918 43.3771L72.6344 43.6642H68.9536V43.6682ZM75.8222 33.9266C75.0421 33.986 74.3511 34.7423 73.9353 35.3462C73.0997 36.558 72.8878 38.0489 72.4463 39.425C72.7116 39.829 73.2997 40.0329 73.7729 40.0131C75.6262 39.9418 77.1231 36.4352 76.8577 34.8592C76.7667 34.3147 76.4182 33.881 75.8242 33.9246L75.8222 33.9266Z" fill="black"/>
<path d="M70.7771 33.9345C71.4464 34.6216 70.8563 35.6373 70.2703 36.1541C69.1714 37.1243 67.5458 37.4312 66.1301 37.5797C66.0707 37.9678 66.035 38.3163 66.1439 38.7004C66.3043 39.2726 66.8369 39.7359 67.4171 39.8428C68.5318 40.0488 69.4961 39.2785 70.3178 38.6449L70.4999 38.8588C70.102 39.3122 69.5773 39.7419 69.0585 40.0646C67.9418 40.7576 66.1816 41.1576 65.2529 39.9636C63.7877 38.0806 65.6014 35.1007 67.3735 34.0929C68.2269 33.6078 69.999 33.1366 70.7771 33.9345ZM66.1855 37.2312C67.423 37.0827 68.8902 36.6451 69.6149 35.5561C70.4188 34.3483 69.6565 33.4712 68.3457 34.1147C68.1279 34.2216 67.8962 34.3879 67.7081 34.5424C66.8904 35.2195 66.435 36.2155 66.1835 37.2312H66.1855Z" fill="black"/>
<path d="M64.2016 33.9345C64.8708 34.6216 64.2808 35.6373 63.6947 36.1541C62.5958 37.1243 60.9702 37.4312 59.5545 37.5797C59.4951 37.9678 59.4595 38.3163 59.5684 38.7004C59.7288 39.2726 60.2614 39.7359 60.8415 39.8428C61.9562 40.0488 62.9205 39.2785 63.7422 38.6449L63.9244 38.8588C63.5264 39.3122 63.0017 39.7419 62.4829 40.0646C61.3662 40.7576 59.606 41.1576 58.6774 39.9636C57.2122 38.0806 59.0259 35.1007 60.798 34.0929C61.6513 33.6078 63.4234 33.1366 64.2016 33.9345ZM59.61 37.2312C60.8475 37.0827 62.3146 36.6451 63.0393 35.5561C63.8432 34.3483 63.0809 33.4712 61.7701 34.1147C61.5523 34.2216 61.3207 34.3879 61.1326 34.5424C60.3148 35.2195 59.8594 36.2155 59.608 37.2312H59.61Z" fill="black"/>
</svg>
